static/img/kroki/a4ab96bdb3a32e2257eb69f9d213adc0.svg

<?xml version="1.0" encoding="us-ascii" standalone="no"?><svg xmlns="http://www.w3.org/2000/svg" xmlns:xlink="http://www.w3.org/1999/xlink" contentStyleType="text/css" height="969px" preserveAspectRatio="none" style="width:379px;height:969px;" version="1.1" viewBox="0 0 379 969" width="379px" zoomAndPan="magnify"><defs/><g><!--class group--><g id="elem_group"><rect codeLine="22" fill="#3D176E" height="39.7891" id="group" rx="2.5" ry="2.5" style="stroke:#000D19;stroke-width:0.5;" width="90" x="213.5" y="438.76"/><ellipse cx="228.5" cy="458.6545" fill="#ADD1B2" rx="11" ry="11" style="stroke:#181818;stroke-width:1.0;"/><path d="M231.4688,464.2952 Q230.8906,464.592 230.25,464.7327 Q229.6094,464.8889 228.9063,464.8889 Q226.4063,464.8889 225.0781,463.2483 Q223.7656,461.592 223.7656,458.467 Q223.7656,455.342 225.0781,453.6858 Q226.4063,452.0295 228.9063,452.0295 Q229.6094,452.0295 230.25,452.1858 Q230.9063,452.342 231.4688,452.6389 L231.4688,455.3577 Q230.8438,454.7795 230.25,454.5139 Q229.6563,454.2327 229.0313,454.2327 Q227.6875,454.2327 227,455.3108 Q226.3125,456.3733 226.3125,458.467 Q226.3125,460.5608 227,461.6389 Q227.6875,462.7014 229.0313,462.7014 Q229.6563,462.7014 230.25,462.4358 Q230.8438,462.1545 231.4688,461.5764 L231.4688,464.2952 Z " fill="#000000"/><text fill="#D9B8FF" font-family="Helvetica" font-size="17" lengthAdjust="spacing" textLength="48" x="247.5" y="464.5398">group</text></g><!--class resource--><g id="elem_resource"><rect codeLine="24" fill="#3D176E" height="310.7578" id="resource" rx="2.5" ry="2.5" style="stroke:#000D19;stroke-width:0.5;" width="227" x="145" y="7"/><ellipse cx="213.75" cy="26.8945" fill="#ADD1B2" rx="11" ry="11" style="stroke:#181818;stroke-width:1.0;"/><path d="M216.7188,32.5352 Q216.1406,32.832 215.5,32.9727 Q214.8594,33.1289 214.1563,33.1289 Q211.6563,33.1289 210.3281,31.4883 Q209.0156,29.832 209.0156,26.707 Q209.0156,23.582 210.3281,21.9258 Q211.6563,20.2695 214.1563,20.2695 Q214.8594,20.2695 215.5,20.4258 Q216.1563,20.582 216.7188,20.8789 L216.7188,23.5977 Q216.0938,23.0195 215.5,22.7539 Q214.9063,22.4727 214.2813,22.4727 Q212.9375,22.4727 212.25,23.5508 Q211.5625,24.6133 211.5625,26.707 Q211.5625,28.8008 212.25,29.8789 Q212.9375,30.9414 214.2813,30.9414 Q214.9063,30.9414 215.5,30.6758 Q216.0938,30.3945 216.7188,29.8164 L216.7188,32.5352 Z " fill="#000000"/><text fill="#D9B8FF" font-family="Helvetica" font-size="17" lengthAdjust="spacing" textLength="71" x="239.25" y="32.7798">resource</text><line style="stroke:#000D19;stroke-width:0.5;" x1="146" x2="371" y1="46.7891" y2="46.7891"/><text fill="#D9B8FF" font-family="sans-serif" font-size="14" font-weight="bold" lengthAdjust="spacing" textLength="29" x="156" y="68.7842">age</text><text fill="#D9B8FF" font-family="sans-serif" font-size="14" lengthAdjust="spacing" textLength="66" x="185" y="68.7842">: duration</text><text fill="#D9B8FF" font-family="sans-serif" font-size="14" font-weight="bold" lengthAdjust="spacing" textLength="43" x="156" y="95.0811">atime</text><text fill="#D9B8FF" font-family="sans-serif" font-size="14" lengthAdjust="spacing" textLength="70" x="199" y="95.0811">: datetime</text><text fill="#D9B8FF" font-family="sans-serif" font-size="14" font-weight="bold" lengthAdjust="spacing" textLength="43" x="156" y="121.3779">ctime</text><text fill="#D9B8FF" font-family="sans-serif" font-size="14" lengthAdjust="spacing" textLength="70" x="199" y="121.3779">: datetime</text><text fill="#D9B8FF" font-family="sans-serif" font-size="14" font-weight="bold" lengthAdjust="spacing" textLength="14" x="156" y="147.6748">id</text><text fill="#D9B8FF" font-family="sans-serif" font-size="14" lengthAdjust="spacing" textLength="48" x="170" y="147.6748">: string</text><text fill="#D9B8FF" font-family="sans-serif" font-size="14" font-weight="bold" lengthAdjust="spacing" textLength="33" x="156" y="173.9717">kind</text><text fill="#D9B8FF" font-family="sans-serif" font-size="14" lengthAdjust="spacing" textLength="48" x="189" y="173.9717">: string</text><text fill="#D9B8FF" font-family="sans-serif" font-size="14" font-weight="bold" lengthAdjust="spacing" textLength="90" x="156" y="200.2686">last_access</text><text fill="#D9B8FF" font-family="sans-serif" font-size="14" lengthAdjust="spacing" textLength="66" x="246" y="200.2686">: duration</text><text fill="#D9B8FF" font-family="sans-serif" font-size="14" font-weight="bold" lengthAdjust="spacing" textLength="90" x="156" y="226.5654">last_update</text><text fill="#D9B8FF" font-family="sans-serif" font-size="14" lengthAdjust="spacing" textLength="66" x="246" y="226.5654">: duration</text><text fill="#D9B8FF" font-family="sans-serif" font-size="14" font-weight="bold" lengthAdjust="spacing" textLength="48" x="156" y="252.8623">mtime</text><text fill="#D9B8FF" font-family="sans-serif" font-size="14" lengthAdjust="spacing" textLength="70" x="204" y="252.8623">: datetime</text><text fill="#D9B8FF" font-family="sans-serif" font-size="14" font-weight="bold" lengthAdjust="spacing" textLength="43" x="156" y="279.1592">name</text><text fill="#D9B8FF" font-family="sans-serif" font-size="14" lengthAdjust="spacing" textLength="48" x="199" y="279.1592">: string</text><text fill="#D9B8FF" font-family="sans-serif" font-size="14" font-weight="bold" lengthAdjust="spacing" textLength="34" x="156" y="305.4561">tags</text><text fill="#D9B8FF" font-family="sans-serif" font-size="14" lengthAdjust="spacing" textLength="171" x="190" y="305.4561">: dictionary[string, string]</text></g><!--class slack_resource--><g id="elem_slack_resource"><rect codeLine="36" fill="#3D176E" height="39.7891" id="slack_resource" rx="2.5" ry="2.5" style="stroke:#000D19;stroke-width:0.5;" width="163" x="15" y="438.76"/><ellipse cx="30" cy="458.6545" fill="#ADD1B2" rx="11" ry="11" style="stroke:#181818;stroke-width:1.0;"/><path d="M32.9688,464.2952 Q32.3906,464.592 31.75,464.7327 Q31.1094,464.8889 30.4063,464.8889 Q27.9063,464.8889 26.5781,463.2483 Q25.2656,461.592 25.2656,458.467 Q25.2656,455.342 26.5781,453.6858 Q27.9063,452.0295 30.4063,452.0295 Q31.1094,452.0295 31.75,452.1858 Q32.4063,452.342 32.9688,452.6389 L32.9688,455.3577 Q32.3438,454.7795 31.75,454.5139 Q31.1563,454.2327 30.5313,454.2327 Q29.1875,454.2327 28.5,455.3108 Q27.8125,456.3733 27.8125,458.467 Q27.8125,460.5608 28.5,461.6389 Q29.1875,462.7014 30.5313,462.7014 Q31.1563,462.7014 31.75,462.4358 Q32.3438,462.1545 32.9688,461.5764 L32.9688,464.2952 Z " fill="#000000"/><text fill="#D9B8FF" font-family="Helvetica" font-size="17" lengthAdjust="spacing" textLength="121" x="49" y="464.5398">slack_resource</text></g><!--class slack_usergroup--><g id="elem_slack_usergroup"><rect codeLine="38" fill="#3D176E" height="363.3516" id="slack_usergroup" rx="2.5" ry="2.5" style="stroke:#000D19;stroke-width:0.5;" width="249" x="7" y="599.55"/><ellipse cx="55.25" cy="619.4445" fill="#ADD1B2" rx="11" ry="11" style="stroke:#181818;stroke-width:1.0;"/><path d="M58.2188,625.0852 Q57.6406,625.382 57,625.5227 Q56.3594,625.6789 55.6563,625.6789 Q53.1563,625.6789 51.8281,624.0383 Q50.5156,622.382 50.5156,619.257 Q50.5156,616.132 51.8281,614.4758 Q53.1563,612.8195 55.6563,612.8195 Q56.3594,612.8195 57,612.9758 Q57.6563,613.132 58.2188,613.4289 L58.2188,616.1477 Q57.5938,615.5695 57,615.3039 Q56.4063,615.0227 55.7813,615.0227 Q54.4375,615.0227 53.75,616.1008 Q53.0625,617.1633 53.0625,619.257 Q53.0625,621.3508 53.75,622.4289 Q54.4375,623.4914 55.7813,623.4914 Q56.4063,623.4914 57,623.2258 Q57.5938,622.9445 58.2188,622.3664 L58.2188,625.0852 Z " fill="#000000"/><text fill="#D9B8FF" font-family="Helvetica" font-size="17" lengthAdjust="spacing" textLength="134" x="80.75" y="625.3298">slack_usergroup</text><line style="stroke:#000D19;stroke-width:0.5;" x1="8" x2="255" y1="639.3391" y2="639.3391"/><text fill="#D9B8FF" font-family="sans-serif" font-size="14" font-weight="bold" lengthAdjust="spacing" textLength="115" x="18" y="661.3342">auto_provision</text><text fill="#D9B8FF" font-family="sans-serif" font-size="14" lengthAdjust="spacing" textLength="65" x="133" y="661.3342">: boolean</text><text fill="#D9B8FF" font-family="sans-serif" font-size="14" font-weight="bold" lengthAdjust="spacing" textLength="77" x="18" y="687.6311">auto_type</text><text fill="#D9B8FF" font-family="sans-serif" font-size="14" lengthAdjust="spacing" textLength="48" x="95" y="687.6311">: string</text><text fill="#D9B8FF" font-family="sans-serif" font-size="14" font-weight="bold" lengthAdjust="spacing" textLength="87" x="18" y="713.9279">created_by</text><text fill="#D9B8FF" font-family="sans-serif" font-size="14" lengthAdjust="spacing" textLength="48" x="105" y="713.9279">: string</text><text fill="#D9B8FF" font-family="sans-serif" font-size="14" font-weight="bold" lengthAdjust="spacing" textLength="89" x="18" y="740.2248">description</text><text fill="#D9B8FF" font-family="sans-serif" font-size="14" lengthAdjust="spacing" textLength="48" x="107" y="740.2248">: string</text><text fill="#D9B8FF" font-family="sans-serif" font-size="14" font-weight="bold" lengthAdjust="spacing" textLength="179" x="18" y="766.5217">enterprise_subteam_id</text><text fill="#D9B8FF" font-family="sans-serif" font-size="14" lengthAdjust="spacing" textLength="48" x="197" y="766.5217">: string</text><text fill="#D9B8FF" font-family="sans-serif" font-size="14" font-weight="bold" lengthAdjust="spacing" textLength="53" x="18" y="792.8186">handle</text><text fill="#D9B8FF" font-family="sans-serif" font-size="14" lengthAdjust="spacing" textLength="48" x="71" y="792.8186">: string</text><text fill="#D9B8FF" font-family="sans-serif" font-size="14" font-weight="bold" lengthAdjust="spacing" textLength="85" x="18" y="819.1154">is_external</text><text fill="#D9B8FF" font-family="sans-serif" font-size="14" lengthAdjust="spacing" textLength="65" x="103" y="819.1154">: boolean</text><text fill="#D9B8FF" font-family="sans-serif" font-size="14" font-weight="bold" lengthAdjust="spacing" textLength="88" x="18" y="845.4123">is_subteam</text><text fill="#D9B8FF" font-family="sans-serif" font-size="14" lengthAdjust="spacing" textLength="65" x="106" y="845.4123">: boolean</text><text fill="#D9B8FF" font-family="sans-serif" font-size="14" font-weight="bold" lengthAdjust="spacing" textLength="103" x="18" y="871.7092">is_usergroup</text><text fill="#D9B8FF" font-family="sans-serif" font-size="14" lengthAdjust="spacing" textLength="65" x="121" y="871.7092">: boolean</text><text fill="#D9B8FF" font-family="sans-serif" font-size="14" font-weight="bold" lengthAdjust="spacing" textLength="60" x="18" y="898.0061">team_id</text><text fill="#D9B8FF" font-family="sans-serif" font-size="14" lengthAdjust="spacing" textLength="48" x="78" y="898.0061">: string</text><text fill="#D9B8FF" font-family="sans-serif" font-size="14" font-weight="bold" lengthAdjust="spacing" textLength="91" x="18" y="924.3029">updated_by</text><text fill="#D9B8FF" font-family="sans-serif" font-size="14" lengthAdjust="spacing" textLength="48" x="109" y="924.3029">: string</text><text fill="#D9B8FF" font-family="sans-serif" font-size="14" font-weight="bold" lengthAdjust="spacing" textLength="88" x="18" y="950.5998">user_count</text><text fill="#D9B8FF" font-family="sans-serif" font-size="14" lengthAdjust="spacing" textLength="44" x="106" y="950.5998">: int64</text></g><!--reverse link resource to group--><g id="link_resource_group"><path codeLine="52" d="M258.5,338.65 C258.5,379.33 258.5,417.03 258.5,438.67 " fill="none" id="resource-backto-group" style="stroke:#FFAF37;stroke-width:2.0;"/><polygon fill="none" points="251.5,338.84,258.5,318.84,265.5,338.84,251.5,338.84" style="stroke:#FFAF37;stroke-width:2.0;"/></g><!--reverse link group to slack_usergroup--><g id="link_group_slack_usergroup"><path codeLine="53" d="M243.29,498.04 C232.93,524.2 218.37,560.95 203.18,599.3 " fill="none" id="group-backto-slack_usergroup" style="stroke:#FFAF37;stroke-width:2.0;"/><polygon fill="none" points="237.06,495.76,250.94,479.75,250.08,500.92,237.06,495.76" style="stroke:#FFAF37;stroke-width:2.0;"/></g><!--reverse link slack_resource to slack_usergroup--><g id="link_slack_resource_slack_usergroup"><path codeLine="54" d="M100.86,499.62 C103.71,525.67 107.64,561.71 111.75,599.3 " fill="none" id="slack_resource-backto-slack_usergroup" style="stroke:#FFAF37;stroke-width:2.0;"/><polygon fill="none" points="93.8,500.39,98.58,479.75,107.71,498.87,93.8,500.39" style="stroke:#FFAF37;stroke-width:2.0;"/></g><!--SRC=[XLFBRjim4BpxAmZaPjI0tRHn7FII6YZQIr0qlHM5i29NCc6959QhfExZtqk6iY1HId8JPqOxioFge1KAh1i-YHhh7Cajt56R1WXgSKja7_UsiYGkYWAAosrAVhA6NnNSGOtYCrOFo5f2glX-qF9eq3dnTa1z17aioRP6nV5CO9odqF10jQ_0kLjcqddBE0YZTlbrKQJATEZ5fTfiht0YiwIGEibwlLQRNIfvrUh5lNl5lVwDOZCixSuoJc9EB9vKBwOCYa78oQ9d_jcCNq4fRKhnVe1zYvd888tm-mCe-nZK1LHkQECO2IsV6jnFjiBTjIgsi-8lpubbQ4u4fX5_5l-wCw6pBKdqq7899IwNDqAr1Aoj2GZhEcB069uz9cSmhGBW_6qofJ_wN6F0Ut46KlgxcZWyCMqJPYLCFUDZ84BzO8OoJjGol0Pq-X6vDvtcPx-ggtmpsM3XCT4wf7CxVl6MRTQGVT3EZmqEkRKLWZbpeUjH4adeSweiFurWXKwIRhYRqkF-RqHgI3lCN9ipGfqb9Hx0g6hieLs6l_nx1gfn94zqKoPulzUOcNECds6oGfYGIN-ZEC3QyDKxtrrVv8U_gzKgNgn5B30YIQsBfFzPqNy0]--></g></svg>

<svg xmlns="http://www.w3.org/2000/svg" width="379" height="969" preserveAspectRatio="none" style="width:379px;height:969px"><rect width="90" height="39.789" x="213.5" y="438.76" fill="#3D176E" rx="2.5" ry="2.5" style="stroke:#000d19;stroke-width:.5"/><circle cx="228.5" cy="458.654" r="11" fill="#ADD1B2" style="stroke:#181818;stroke-width:1"/><path d="M231.469 464.295q-.578.297-1.219.438-.64.156-1.344.156-2.5 0-3.828-1.64-1.312-1.657-1.312-4.782t1.312-4.781q1.328-1.656 3.828-1.656.703 0 1.344.156.656.156 1.219.453v2.719q-.625-.579-1.219-.844-.594-.281-1.219-.281-1.344 0-2.031 1.078-.688 1.062-.688 3.156 0 2.094.688 3.172.688 1.062 2.031 1.062.625 0 1.219-.265.594-.281 1.219-.86v2.72Z"/><text x="247.5" y="464.54" fill="#D9B8FF" font-family="Helvetica" font-size="17" textLength="48">group</text><rect width="227" height="310.758" x="145" y="7" fill="#3D176E" rx="2.5" ry="2.5" style="stroke:#000d19;stroke-width:.5"/><circle cx="213.75" cy="26.895" r="11" fill="#ADD1B2" style="stroke:#181818;stroke-width:1"/><path d="M216.719 32.535q-.578.297-1.219.438-.64.156-1.344.156-2.5 0-3.828-1.64-1.312-1.657-1.312-4.782t1.312-4.781q1.328-1.656 3.828-1.656.703 0 1.344.156.656.156 1.219.453v2.719q-.625-.578-1.219-.844-.594-.281-1.219-.281-1.344 0-2.031 1.078-.688 1.062-.688 3.156 0 2.094.688 3.172.688 1.062 2.031 1.062.625 0 1.219-.265.594-.281 1.219-.86v2.72Z"/><text x="239.25" y="32.78" fill="#D9B8FF" font-family="Helvetica" font-size="17" textLength="71">resource</text><path d="M146 46.789h225" style="stroke:#000d19;stroke-width:.5"/><text x="156" y="68.784" fill="#D9B8FF" font-family="sans-serif" font-size="14" font-weight="bold" textLength="29">age</text><text x="185" y="68.784" fill="#D9B8FF" font-family="sans-serif" font-size="14" textLength="66">: duration</text><text x="156" y="95.081" fill="#D9B8FF" font-family="sans-serif" font-size="14" font-weight="bold" textLength="43">atime</text><text x="199" y="95.081" fill="#D9B8FF" font-family="sans-serif" font-size="14" textLength="70">: datetime</text><text x="156" y="121.378" fill="#D9B8FF" font-family="sans-serif" font-size="14" font-weight="bold" textLength="43">ctime</text><text x="199" y="121.378" fill="#D9B8FF" font-family="sans-serif" font-size="14" textLength="70">: datetime</text><text x="156" y="147.675" fill="#D9B8FF" font-family="sans-serif" font-size="14" font-weight="bold" textLength="14">id</text><text x="170" y="147.675" fill="#D9B8FF" font-family="sans-serif" font-size="14" textLength="48">: string</text><text x="156" y="173.972" fill="#D9B8FF" font-family="sans-serif" font-size="14" font-weight="bold" textLength="33">kind</text><text x="189" y="173.972" fill="#D9B8FF" font-family="sans-serif" font-size="14" textLength="48">: string</text><text x="156" y="200.269" fill="#D9B8FF" font-family="sans-serif" font-size="14" font-weight="bold" textLength="90">last_access</text><text x="246" y="200.269" fill="#D9B8FF" font-family="sans-serif" font-size="14" textLength="66">: duration</text><text x="156" y="226.565" fill="#D9B8FF" font-family="sans-serif" font-size="14" font-weight="bold" textLength="90">last_update</text><text x="246" y="226.565" fill="#D9B8FF" font-family="sans-serif" font-size="14" textLength="66">: duration</text><text x="156" y="252.862" fill="#D9B8FF" font-family="sans-serif" font-size="14" font-weight="bold" textLength="48">mtime</text><text x="204" y="252.862" fill="#D9B8FF" font-family="sans-serif" font-size="14" textLength="70">: datetime</text><text x="156" y="279.159" fill="#D9B8FF" font-family="sans-serif" font-size="14" font-weight="bold" textLength="43">name</text><text x="199" y="279.159" fill="#D9B8FF" font-family="sans-serif" font-size="14" textLength="48">: string</text><text x="156" y="305.456" fill="#D9B8FF" font-family="sans-serif" font-size="14" font-weight="bold" textLength="34">tags</text><text x="190" y="305.456" fill="#D9B8FF" font-family="sans-serif" font-size="14" textLength="171">: dictionary[string, string]</text><rect width="163" height="39.789" x="15" y="438.76" fill="#3D176E" rx="2.5" ry="2.5" style="stroke:#000d19;stroke-width:.5"/><circle cx="30" cy="458.654" r="11" fill="#ADD1B2" style="stroke:#181818;stroke-width:1"/><path d="M32.969 464.295q-.578.297-1.219.438-.64.156-1.344.156-2.5 0-3.828-1.64-1.312-1.657-1.312-4.782t1.312-4.781q1.328-1.656 3.828-1.656.703 0 1.344.156.656.156 1.219.453v2.719q-.625-.579-1.219-.844-.594-.281-1.219-.281-1.343 0-2.031 1.078-.688 1.062-.688 3.156 0 2.094.688 3.172.688 1.062 2.031 1.062.625 0 1.219-.265.594-.281 1.219-.86v2.72Z"/><text x="49" y="464.54" fill="#D9B8FF" font-family="Helvetica" font-size="17" textLength="121">slack_resource</text><rect width="249" height="363.352" x="7" y="599.55" fill="#3D176E" rx="2.5" ry="2.5" style="stroke:#000d19;stroke-width:.5"/><circle cx="55.25" cy="619.444" r="11" fill="#ADD1B2" style="stroke:#181818;stroke-width:1"/><path d="M58.219 625.085q-.578.297-1.219.438-.64.156-1.344.156-2.5 0-3.828-1.64-1.312-1.657-1.312-4.782t1.312-4.781q1.328-1.657 3.828-1.657.703 0 1.344.157.656.156 1.219.453v2.719q-.625-.579-1.219-.844-.594-.281-1.219-.281-1.343 0-2.031 1.078-.688 1.062-.688 3.156 0 2.094.688 3.172.688 1.062 2.031 1.062.625 0 1.219-.265.594-.282 1.219-.86v2.72Z"/><text x="80.75" y="625.33" fill="#D9B8FF" font-family="Helvetica" font-size="17" textLength="134">slack_usergroup</text><path d="M8 639.339h247" style="stroke:#000d19;stroke-width:.5"/><text x="18" y="661.334" fill="#D9B8FF" font-family="sans-serif" font-size="14" font-weight="bold" textLength="115">auto_provision</text><text x="133" y="661.334" fill="#D9B8FF" font-family="sans-serif" font-size="14" textLength="65">: boolean</text><text x="18" y="687.631" fill="#D9B8FF" font-family="sans-serif" font-size="14" font-weight="bold" textLength="77">auto_type</text><text x="95" y="687.631" fill="#D9B8FF" font-family="sans-serif" font-size="14" textLength="48">: string</text><text x="18" y="713.928" fill="#D9B8FF" font-family="sans-serif" font-size="14" font-weight="bold" textLength="87">created_by</text><text x="105" y="713.928" fill="#D9B8FF" font-family="sans-serif" font-size="14" textLength="48">: string</text><text x="18" y="740.225" fill="#D9B8FF" font-family="sans-serif" font-size="14" font-weight="bold" textLength="89">description</text><text x="107" y="740.225" fill="#D9B8FF" font-family="sans-serif" font-size="14" textLength="48">: string</text><text x="18" y="766.522" fill="#D9B8FF" font-family="sans-serif" font-size="14" font-weight="bold" textLength="179">enterprise_subteam_id</text><text x="197" y="766.522" fill="#D9B8FF" font-family="sans-serif" font-size="14" textLength="48">: string</text><text x="18" y="792.819" fill="#D9B8FF" font-family="sans-serif" font-size="14" font-weight="bold" textLength="53">handle</text><text x="71" y="792.819" fill="#D9B8FF" font-family="sans-serif" font-size="14" textLength="48">: string</text><text x="18" y="819.115" fill="#D9B8FF" font-family="sans-serif" font-size="14" font-weight="bold" textLength="85">is_external</text><text x="103" y="819.115" fill="#D9B8FF" font-family="sans-serif" font-size="14" textLength="65">: boolean</text><text x="18" y="845.412" fill="#D9B8FF" font-family="sans-serif" font-size="14" font-weight="bold" textLength="88">is_subteam</text><text x="106" y="845.412" fill="#D9B8FF" font-family="sans-serif" font-size="14" textLength="65">: boolean</text><text x="18" y="871.709" fill="#D9B8FF" font-family="sans-serif" font-size="14" font-weight="bold" textLength="103">is_usergroup</text><text x="121" y="871.709" fill="#D9B8FF" font-family="sans-serif" font-size="14" textLength="65">: boolean</text><text x="18" y="898.006" fill="#D9B8FF" font-family="sans-serif" font-size="14" font-weight="bold" textLength="60">team_id</text><text x="78" y="898.006" fill="#D9B8FF" font-family="sans-serif" font-size="14" textLength="48">: string</text><text x="18" y="924.303" fill="#D9B8FF" font-family="sans-serif" font-size="14" font-weight="bold" textLength="91">updated_by</text><text x="109" y="924.303" fill="#D9B8FF" font-family="sans-serif" font-size="14" textLength="48">: string</text><text x="18" y="950.6" fill="#D9B8FF" font-family="sans-serif" font-size="14" font-weight="bold" textLength="88">user_count</text><text x="106" y="950.6" fill="#D9B8FF" font-family="sans-serif" font-size="14" textLength="44">: int64</text><path fill="none" d="M258.5 338.65v100.02m-7-99.83 7-20 7 20h-14z" style="stroke:#ffaf37;stroke-width:2"/><g fill="none"><path d="M243.29 498.04c-10.36 26.16-24.92 62.91-40.11 101.26" style="stroke:#ffaf37;stroke-width:2"/><path d="m237.06 495.76 13.88-16.01-.86 21.17-13.02-5.16z" style="stroke:#ffaf37;stroke-width:2"/></g><path fill="none" d="M100.86 499.62c2.85 26.05 6.78 62.09 10.89 99.68M93.8 500.39l4.78-20.64 9.13 19.12-13.91 1.52z" style="stroke:#ffaf37;stroke-width:2"/></svg>
